X:1
T:Title
%%score 1 { 2 | 3 }
L:1/8
Q:1/4=144
M:4/4
K:G
V:1 treble nm="Chant\nVoice"
V:2 treble nm="Piano"
V:3 bass 
V:1
"^Allegro giocoso" z8 | z8 | z8 | z8 | z8 | z8 | z8 | z8 | z8 | z8 |: B,2 B,2 B,2 C D | %11
 D2 A,2 A,4 | C2 B,3/2 A,/ A,2 A,2 | A,4 G,2 z2 | G2 G2 G2 F3/2 E/ | F4 A4 | %16
!f! !>!A2 A,3/2 B,/ ^C2 F E | D2 z2 z2 z!mf! D | D2 C2 B,2 A,2 | G,3/2 B,/ D2 D2 z!f! D | %20
 E3 D C2 D C | B,2 z2 z2 z B, | B,2 B,2 ^D2 D2 | !>!E2 F G F3 F | !>!F3 F !>!B2 D2 | (^C4 F2) z2 | %26
"^sostenuto."[Q:1/4=140] F2[Q:1/4=136] E3/2 D/[Q:1/4=134] D2 E2 |[Q:1/4=130] F2 G2 F2 E2 | %28
[Q:1/4=125] (D4 ^C4) |[Q:1/4=120] (^C4 B,2) z2 |[Q:1/4=144] D2 F3/2 F/ F2 A2 | %31
 B3/2 G/ E D ^C2 A, A, | D2 z2 z4 | z8 | z8 | z8 | z8 |1,2 z8 :|3 z8 |] %39
V:2
!f!!8va(! [gbg']>[ff'][ee']>[dd'] [cgc']2 [dd']2!8va)! | [G,B,DG]2 [G,B,D]>[G,B,D] [G,B,D]2 z2 | %2
!f! [Gdg]>[Ff][Ee]>[Dd] [Cc]2 [Dd]2 |[K:bass] [F,A,CD]2 [D,F,A,]>[D,F,A,] [D,F,A,]2 z2 | %4
[K:treble]!mp! [Bdb]>[Aa][Gg]>[Ff] [Ee]2 [Dd]2 | [^CEGA^c]2 [GAeg]2 [FAdf]2 [DA=cd]2 | %6
 [GBg]2 z2!mf! [Dd]4- | [Dd]3 [Dd] [Dd]4 | z4 [Dd]4- | [Dd]3 [Dd] [Dd]4 |: %10
 z2!p! [B,DG]2 z2 [B,DG]2 | z2 [A,DA]2 z2 [A,DA]2 | z2 [CEA]2 z2 [CDF]2 | z2 [CDF]2 z2 [B,DG]2 | %14
 z2 [B,EG]2 z2 [A,^CG]2 | z2 [A,DF]2 z2 [A,DF]2 |!f! [A,DFA]2 z2 [A,EG]2 z2 | %17
 [A,DF]2 [A,DF]>[A,DF] [A,DF]2 z2 |!p! z2 [F,A,D]2 z2 [F,A,D]2 | z2 [G,B,D]2 z2 [G,B,D]2 | %20
!f! [G,CE]2 z2 [G,CE]2 z2 | [G,B,D]2 [G,B,D]>[G,B,D] [G,B,D]2 z2 | [^DF]4 [B,FB]4 | %23
 [B,GB]4 [^A,F^A]4 | [B,DFB]2 z2 [B,DFB]2 z2 | [^A,EF^A]4 [B,DFB]4 | %26
"^sostenuto"!p! [A,EFA]2 [A,EFA]2 z2 [A,EFA]2 | z2 [A,EGA]2 z2 [A,EGA]2 | z2 [F,DF]2 z2 [G,^A,E]2 | %29
 z2 [F,^A,E]2 [F,B,D]2 [F,B,D]>[F,B,D] | z2!f! [F,A,DF]2 z2 [F,A,DF]2 | %31
 z2 [E,G,B,E]2 z2 [E,A,^C]2 |!f! [F,A,D]2 [A,DF]2 [DFA]2 [FAd]2 | %33
 [FAdf]4- [FAdf] z!p! [Fdf]>[Fdf] | [Fdf]4- [Fdf] z [Fdf]>[Fdf] | [Fcdf]4- [Fcdf] z [Fcdf]>[Fcdf] | %36
 [Bdg]>[Ada] [Gdg]>[Fdf] [EGe]>[FAf] [GBg]>[Aca] |1,2 [Bdb]2 z2 z4 :|3 %38
!f! [Bdb]2 z2 !fermata![gbd'g']4 |] %39
V:3
 [G,,D,G,]>[A,,A,][B,,B,]>[G,,G,] [E,,E,]2 [F,,F,]2 | [G,,G,]2 [D,,D,]>[D,,D,] [D,,D,]2 z2 | %2
 [B,,B,]>[A,,A,][G,,G,]>[F,,F,] [E,,E,]2 [D,,D,]2 | [D,,D,]2 [C,,C,]>[C,,C,] [C,,C,]2 z2 | %4
 [B,,D,G,B,]>[C,C][D,D]>[E,E] [C,C]2 [B,,B,]2 | [A,,A,]2 [C,C]2 [D,D]2 [D,,D,]2 | %6
 [G,,,G,,]2 [B,,D,G,]2 [B,,D,G,]2 [B,,D,G,]2 | [C,,C,]2 [D,F,A,]2 [D,F,A,]2 [D,F,A,]2 | %8
 [G,,,G,,]2 [B,,D,G,]2 [B,,D,G,]2 [B,,D,G,]2 | [C,,C,]2 [D,F,A,]2 [D,F,A,]2 [D,F,A,]2 |: %10
 [G,,G,]2 z2 [G,,G,]2 z2 | [F,,F,]2 z2 [F,,F,]2 z2 | [A,,A,]2 z2 [D,,D,]2 z2 | %13
 [D,,D,]2 z2 [G,,G,]2 z2 | [E,,E,]2 z2 [E,,E,]2 z2 | [D,,D,]2 z2 [D,,D,]2 z2 | %16
 [A,,,A,,]2 z2 [A,,,A,,]2 z2 | [D,,D,]2 [D,,D,]>[D,,D,] [D,,D,]2 z2 | [C,,C,]2 z2 [C,,C,]2 z2 | %19
 [B,,,B,,]2 z2 [B,,,B,,]2 z2 | [C,,C,]2 z2 [C,,C,]2 z2 | %21
 [G,,,G,,]2 [G,,,G,,]>[G,,,G,,] [G,,,G,,]2 z2 | [B,,B,]4 [^D,^D]4 | [E,E]4 [^C,^C]4 | %24
 [F,,F,]2 z2 [F,,F,]2 z2 | [F,,F,]4 [B,,,B,,]4 | [^C,,^C,]2 z2 [C,,C,]2 z2 | %27
 [^C,,^C,]2 z2 [C,,C,]2 z2 | [D,,D,]2 z2 [E,,E,]2 z2 | z2 [F,,F,]2 [B,,,B,,]2 [B,,,B,,]>[B,,,B,,] | %30
 [A,,,A,,]2 z2 [A,,,A,,]2 z2 | [G,,,G,,]2 z2 [A,,,A,,]2 z2 | [D,,D,]2 [F,,F,]2 [A,,A,]2 [D,D]2 | %33
 [D,A,D]4- [D,A,D] z z2 | [A,CE]2 [A,CE]>[A,CE] [A,CE]2 z2 | [D,,D,]2 [D,,D,]>[D,,D,] [D,,D,]2 z2 | %36
 [G,,G,]>[A,,A,] [B,,B,]>[C,C] [D,D]>[C,C] [B,,B,]>[A,,A,] |1,2 [G,,G,]2 z2 z4 :|3 %38
 [G,,G,]2 z2 !fermata![G,,D,G,]4 |] %39

